assets/img/templates/pieprogress/circle7.svg

<svg height="120" viewBox="0 0 105 120" width="105" xmlns="http://www.w3.org/2000/svg"><g fill="none" fill-rule="evenodd"><path d="m0 0h105v120h-105z" fill="#fff"/><g fill-rule="nonzero"><g transform="translate(21.837351 90.192322)"><path d="m2.2029232 10.5983902v-.5435072c.47662977-.10015849.85346518-.31446824 1.13050623-.64292922s.41556158-.72541271.41556158-1.19085518c0-.32698807-.08341021-.60095104-.25023063-.82188893-.16682042-.22093788-.47811924-.46838831-.93389645-.74235128-.08043127-.04713342-.20107818-.11930646-.36194073-.21651912v-2.32868528c.38428275.02945838.86240198.16643987 1.4343577.41094446v-.71141998c-.5213138-.19737118-.99943304-.29605676-1.4343577-.29605676v-.54792595h-.4379036v.54792595c-.47365083.03535006-.85420991.19663471-1.14167723.48385396-.28746733.28721924-.43120099.64882091-.43120099 1.084805 0 .38885067.11096536.72320333.3328961 1.00305798.22193073.27985465.63525811.60242396 1.23998212.96770793v2.34636031c-.50344019 0-1.09178005-.15465652-1.7650196-.46396956v.7511888c.65238699.24450459 1.24072686.36675687 1.7650196.36675687v.5435072zm-.4379036-4.44527018c-.31278828-.19737118-.52429274-.3719121-.63451337-.52362278-.11022064-.15171068-.16533095-.33950788-.16533095-.5633916 0-.45365912.26661477-.76297216.79984432-.92793911zm.4379036 3.19476177v-2.03704727c.31874616.21799204.52727168.39400589.62557657.52804154s.14745733.30563074.14745733.51478526c0 .48017167-.25767796.81157849-.7730339.99422047z" fill="#acacac"/><path d="m12.1808695 10.054883v-.98096418h-1.9839714v-9.07391882l-3.31108745.81526079v1.00747674l1.98397141-.4904821v7.74166339h-1.98397141v.98096418zm4.899605.2452411c1.2913688 0 2.3157504-.49600558 3.0731449-1.48801667s1.1360917-2.33199935 1.1360917-4.01996477c0-1.48470256-.310554-2.65456865-.9316622-3.50959825-.6211082-.85502961-1.4701049-1.28254441-2.5469903-1.28254441-.9383649 0-1.7169843.33030213-2.3358582.9909064-.618874.66060427-.928311 1.4924354-.928311 2.49549338 0 .87491401.2904463 1.61616061.8713388 2.22373978.5808925.60757918 1.2891346.91136877 2.1247261.91136877.8534652 0 1.6153281-.40873508 2.2855887-1.22620525 0 1.23283338-.2312399 2.19501786-.6937197 2.88655343s-1.1048129 1.03730336-1.9269993 1.03730336c-.5898293 0-1.304774-.14360962-2.1448339-.43082887v1.10689879c.8266547.20326281 1.4991495.30489431 2.0174844.30489431zm.7037737-4.61981115c-.5942978 0-1.0623631-.2187285-1.404196-.65618551s-.5127494-1.03619867-.5127494-1.79622498c0-.69374495.1664481-1.24277559.4993442-1.64709191.3328961-.40431633.7875562-.60647449 1.3639803-.60647449.6211082 0 1.1226865.25518325 1.5047351.76554976.3820485.51036651.5730728 1.18312236.5730728 2.01826756 0 .53025091-.1977269.98317357-.5931806 1.35876797-.3954538.3755944-.8724559.5633916-1.4310064.5633916zm8.1101533 4.61981115c1.0768854 0 1.923648-.2629161 2.5402877-.78874827.6166398-.52583216.9249597-1.25050842.9249597-2.17402876 0-1.36539612-.7998444-2.23147261-2.399533-2.5982295 1.3807368-.4904821 2.0711053-1.31237102 2.0711053-2.46566676 0-1.51563387-1.0143277-2.27345081-3.0429832-2.27345081-.7372867 0-1.4969154.13035335-2.2788861.39106005v1.14003947c.795376-.36675688 1.5237258-.55013532 2.1850496-.55013532 1.2064691 0 1.8097037.50152899 1.8097037 1.50458697 0 1.27702096-.9160229 1.91553144-2.7480685 1.91553144l-.4624799.00662814v.88154215h.5228033c1.9526926 0 2.9290389.68932619 2.9290389 2.06797858 0 .57885725-.1977269 1.05055963-.5931807 1.41510713-.3954537.36454751-.9082031.54682126-1.5382481.54682126-.5451452 0-1.2913687-.18558782-2.2386704-.55676346v1.21957711c.9338965.21210038 1.7069304.31815058 2.3191017.31815058zm8.338042 0c1.1528482 0 2.0543488-.2706489 2.7045016-.81194675.6501527-.54129781.9752291-1.28917254.9752291-2.24362419 0-1.02515178-.3574723-1.82715629-1.0724169-2.40601354-.7149447-.57885725-1.7091646-.86828588-2.9826597-.86828588v-2.58497322h3.8607011v-1.14003947h-5.020252v4.77225825c.254699-.0309313.4982271-.04639695.7305841-.04639695 2.0509974 0 3.0764962.73572315 3.0764962 2.20716944 0 .66723241-.1865559 1.19085519-.5596676 1.57086834-.3731118.38001316-.8858612.57001974-1.5382481.57001974-.5942978 0-1.2198744-.13035335-1.8767298-.39106005v1.16655198c.6345134.1369815 1.2020007.2054723 1.702462.2054723zm8.3045289-.2452411v-1.63714969h-1.6555437v1.63714969zm5.650297.2452411c1.0679485 0 1.9202966-.46949303 2.5570442-1.40847903s.9551214-2.19501786.9551214-3.76809558c0-1.5333089-.3183738-2.77056104-.9551214-3.71175642-.6367476-.94119538-1.4756904-1.41179307-2.5168286-1.41179307-1.0411381 0-1.880081.47059769-2.5168286 1.41179307s-.9551213 2.18507565-.9551213 3.73164083c0 1.5333089.3161395 2.77608449.9484187 3.72832676s1.460051 1.42836344 2.4833156 1.42836344zm.0134052-.98096423c-1.3583948 0-2.0375923-1.39190866-2.0375923-4.17572597 0-2.7749798.6881343-4.1624697 2.0644027-4.1624697 1.3807369 0 2.0711053 1.37423362 2.0711053 4.12270088 0 2.81032986-.6993052 4.21549479-2.0979157 4.21549479zm8.6664697.98096423c1.0679485 0 1.9202966-.46949303 2.5570442-1.40847903s.9551213-2.19501786.9551213-3.76809558c0-1.5333089-.3183737-2.77056104-.9551213-3.71175642-.6367476-.94119538-1.4756905-1.41179307-2.5168286-1.41179307-1.0411382 0-1.880081.47059769-2.5168286 1.41179307s-.9551214 2.18507565-.9551214 3.73164083c0 1.5333089.3161396 2.77608449.9484188 3.72832676s1.460051 1.42836344 2.4833156 1.42836344zm.0134052-.98096423c-1.3583949 0-2.0375923-1.39190866-2.0375923-4.17572597 0-2.7749798.6881342-4.1624697 2.0644027-4.1624697 1.3807368 0 2.0711053 1.37423362 2.0711053 4.12270088 0 2.81032986-.6993053 4.21549479-2.0979157 4.21549479z" fill="#000"/></g><g transform="translate(21.100958 5)"><path d="m24.9429161 12.0603097c-13.7092932 0-24.82287822 11.0407189-24.82287822 24.6601273 0 13.6195282 11.11355402 24.660278 24.82287822 24.660278 13.7093243 0 24.8228782-11.0407498 24.8228782-24.660278 0-13.6194084-11.113585-24.6601273-24.8228782-24.6601273z" fill="#1738bb"/><path d="m24.828525.06956892c20.4691471 0 37.0627306 16.40916408 37.0627306 36.65079308 0 20.0393534-16.263363 36.322524-36.4498314 36.6461835l-.6128992.0049102v-12.0242918c13.7536917 0 24.9033413-11.0258456 24.9033413-24.6268019 0-13.464779-10.9277526-24.4057294-24.4915198-24.623202l-.4118215-.0032992z" fill="#f67900"/></g></g><text fill="#304254" font-family="OpenSans-SemiBold, Open Sans" font-size="6" font-weight="500"><tspan x="46.22168" y="111">Title</tspan></text></g></svg>

<?xml version="1.0" encoding="UTF-8"?>
<svg width="105px" height="120px" viewBox="0 0 105 120" version="1.1" xmlns="http://www.w3.org/2000/svg" xmlns:xlink="http://www.w3.org/1999/xlink">
    <!-- Generator: Sketch 61.1 (89650) - https://sketch.com -->
    <title>circle7</title>
    <desc>Created with Sketch.</desc>
    <g id="circle7" stroke="none" stroke-width="1" fill="none" fill-rule="evenodd">
        <rect fill="#FFFFFF" x="0" y="0" width="105" height="120"></rect>
        <g id="Group-45" transform="translate(21.000000, 5.000000)" fill-rule="nonzero">
            <g id="Group-42" transform="translate(0.100958, 0.000000)">
                <g id="$1935.00" transform="translate(0.736393, 85.192322)">
                    <path d="M2.2029232,10.5983902 L2.2029232,10.054883 C2.67955297,9.95472451 3.05638838,9.74041476 3.33342943,9.41195378 C3.61047048,9.0834928 3.74899101,8.68654107 3.74899101,8.2210986 C3.74899101,7.89411053 3.6655808,7.62014756 3.49876038,7.39920967 C3.33193996,7.17827179 3.02064114,6.93082136 2.56486393,6.65685839 C2.48443266,6.60972497 2.36378575,6.53755193 2.2029232,6.44033927 L2.2029232,6.44033927 L2.2029232,4.11165399 C2.58720595,4.14111237 3.06532518,4.27809386 3.6372809,4.52259845 L3.6372809,4.52259845 L3.6372809,3.81117847 C3.1159671,3.61380729 2.63784786,3.51512171 2.2029232,3.51512171 L2.2029232,3.51512171 L2.2029232,2.96719576 L1.7650196,2.96719576 L1.7650196,3.51512171 C1.29136877,3.55047177 0.910809694,3.71175642 0.623342366,3.99897567 C0.335875038,4.28619491 0.192141375,4.64779658 0.192141375,5.08378067 C0.192141375,5.47263134 0.303106742,5.806984 0.525037477,6.08683865 C0.746968212,6.3666933 1.16029559,6.68926261 1.7650196,7.05454658 L1.7650196,7.05454658 L1.7650196,9.40090689 C1.26157941,9.40090689 0.673239545,9.24625037 0,8.93693733 L0,8.93693733 L0,9.68812613 C0.652386993,9.93263072 1.24072686,10.054883 1.7650196,10.054883 L1.7650196,10.054883 L1.7650196,10.5983902 L2.2029232,10.5983902 Z M1.7650196,6.15312002 C1.45223132,5.95574884 1.24072686,5.78120792 1.13050623,5.62949724 C1.02028559,5.47778656 0.965175277,5.28998936 0.965175277,5.06610564 C0.965175277,4.61244652 1.23179005,4.30313348 1.7650196,4.13816653 L1.7650196,4.13816653 L1.7650196,6.15312002 Z M2.2029232,9.34788179 L2.2029232,7.31083452 C2.52166936,7.52882656 2.73019488,7.70484041 2.82849977,7.83887606 C2.92680466,7.97291171 2.9759571,8.1445068 2.9759571,8.35366132 C2.9759571,8.83383299 2.71827914,9.16523981 2.2029232,9.34788179 L2.2029232,9.34788179 Z" id="$" fill="#ACACAC"></path>
                    <path d="M12.1808695,10.054883 L12.1808695,9.07391882 L10.1968981,9.07391882 L10.1968981,0 L6.88581065,0.815260785 L6.88581065,1.82273753 L8.86978206,1.33225543 L8.86978206,9.07391882 L6.88581065,9.07391882 L6.88581065,10.054883 L12.1808695,10.054883 Z M17.0804745,10.3001241 C18.3718433,10.3001241 19.3962249,9.80411852 20.1536194,8.81210743 C20.9110139,7.82009634 21.2897111,6.48010808 21.2897111,4.79214266 C21.2897111,3.3074401 20.9791571,2.13757401 20.3580489,1.28254441 C19.7369407,0.427514802 18.887944,0 17.8110586,0 C16.8726937,0 16.0940743,0.330302134 15.4752004,0.990906402 C14.8563264,1.65151067 14.5468894,2.4833418 14.5468894,3.48639978 C14.5468894,4.36131379 14.8373357,5.10256039 15.4182282,5.71013956 C15.9991207,6.31771874 16.7073628,6.62150833 17.5429543,6.62150833 C18.3964195,6.62150833 19.1582824,6.21277325 19.828543,5.39530308 C19.828543,6.62813646 19.5973031,7.59032094 19.1348233,8.28185651 C18.6723435,8.97339208 18.0300104,9.31915987 17.207824,9.31915987 C16.6179947,9.31915987 15.90305,9.17555025 15.0629901,8.888331 L15.0629901,8.888331 L15.0629901,9.99522979 C15.8896448,10.1984926 16.5621396,10.3001241 17.0804745,10.3001241 Z M17.7842482,5.68031295 C17.1899504,5.68031295 16.7218851,5.46158445 16.3800522,5.02412744 C16.0382193,4.58667043 15.8673028,3.98792877 15.8673028,3.22790246 C15.8673028,2.53415751 16.0337509,1.98512687 16.366647,1.58081055 C16.6995431,1.17649422 17.1542032,0.97433606 17.7306273,0.97433606 C18.3517355,0.97433606 18.8533138,1.22951931 19.2353624,1.73988582 C19.6174109,2.25025233 19.8084352,2.92300818 19.8084352,3.75815338 C19.8084352,4.28840429 19.6107083,4.74132695 19.2152546,5.11692135 C18.8198008,5.49251575 18.3427987,5.68031295 17.7842482,5.68031295 Z M25.8944015,10.3001241 C26.9712869,10.3001241 27.8180495,10.037208 28.4346892,9.51137583 C29.051329,8.98554367 29.3596489,8.26086741 29.3596489,7.33734707 C29.3596489,5.97195095 28.5598045,5.10587446 26.9601159,4.73911757 C28.3408527,4.24863547 29.0312212,3.42674655 29.0312212,2.27345081 C29.0312212,0.757816936 28.0168935,0 25.988238,0 C25.2509513,0 24.4913226,0.13035335 23.7093519,0.391060051 L23.7093519,0.391060051 L23.7093519,1.53109952 C24.5047279,1.16434264 25.2330777,0.980964197 25.8944015,0.980964197 C27.1008706,0.980964197 27.7041052,1.48249319 27.7041052,2.48555117 C27.7041052,3.76257213 26.7880823,4.40108261 24.9560367,4.40108261 L24.9560367,4.40108261 L24.4935568,4.40771075 L24.4935568,5.2892529 L25.0163601,5.2892529 C26.9690527,5.2892529 27.945399,5.97857909 27.945399,7.35723148 C27.945399,7.93608873 27.7476721,8.40779111 27.3522183,8.77233861 C26.9567646,9.13688612 26.4440152,9.31915987 25.8139702,9.31915987 C25.268825,9.31915987 24.5226015,9.13357205 23.5752998,8.76239641 L23.5752998,8.76239641 L23.5752998,9.98197352 C24.5091963,10.1940739 25.2822302,10.3001241 25.8944015,10.3001241 Z M34.2324435,10.3001241 C35.3852917,10.3001241 36.2867923,10.0294752 36.9369451,9.48817735 C37.5870978,8.94687954 37.9121742,8.19900481 37.9121742,7.24455316 C37.9121742,6.21940138 37.5547019,5.41739687 36.8397573,4.83853962 C36.1248126,4.25968237 35.1305927,3.97025374 33.8570976,3.97025374 L33.8570976,3.97025374 L33.8570976,1.38528052 L37.7177987,1.38528052 L37.7177987,0.245241049 L32.6975467,0.245241049 L32.6975467,5.0174993 C32.9522457,4.986568 33.1957738,4.97110235 33.4281308,4.97110235 C35.4791282,4.97110235 36.504627,5.7068255 36.504627,7.17827179 C36.504627,7.8455042 36.3180711,8.36912698 35.9449594,8.74914013 C35.5718476,9.12915329 35.0590982,9.31915987 34.4067113,9.31915987 C33.8124135,9.31915987 33.1868369,9.18880652 32.5299815,8.92809982 L32.5299815,8.92809982 L32.5299815,10.0946518 C33.1644949,10.2316333 33.7319822,10.3001241 34.2324435,10.3001241 Z M42.5369724,10.054883 L42.5369724,8.41773331 L40.8814287,8.41773331 L40.8814287,10.054883 L42.5369724,10.054883 Z M48.1872694,10.3001241 C49.2552179,10.3001241 50.107566,9.83063107 50.7443136,8.89164507 C51.3810612,7.95265907 51.699435,6.69662721 51.699435,5.12354949 C51.699435,3.59024059 51.3810612,2.35298845 50.7443136,1.41179307 C50.107566,0.470597689 49.2686232,0 48.227485,0 C47.1863469,0 46.347404,0.470597689 45.7106564,1.41179307 C45.0739088,2.35298845 44.7555351,3.59686872 44.7555351,5.1434339 C44.7555351,6.6767428 45.0716746,7.91951839 45.7039538,8.87176066 C46.336233,9.82400293 47.1640048,10.3001241 48.1872694,10.3001241 Z M48.2006746,9.31915987 C46.8422798,9.31915987 46.1630823,7.92725121 46.1630823,5.1434339 C46.1630823,2.3684541 46.8512166,0.980964197 48.227485,0.980964197 C49.6082219,0.980964197 50.2985903,2.35519782 50.2985903,5.10366508 C50.2985903,7.91399494 49.5992851,9.31915987 48.2006746,9.31915987 Z M56.8671443,10.3001241 C57.9350928,10.3001241 58.7874409,9.83063107 59.4241885,8.89164507 C60.0609361,7.95265907 60.3793098,6.69662721 60.3793098,5.12354949 C60.3793098,3.59024059 60.0609361,2.35298845 59.4241885,1.41179307 C58.7874409,0.470597689 57.948498,0 56.9073599,0 C55.8662217,0 55.0272789,0.470597689 54.3905313,1.41179307 C53.7537837,2.35298845 53.4354099,3.59686872 53.4354099,5.1434339 C53.4354099,6.6767428 53.7515495,7.91951839 54.3838287,8.87176066 C55.0161079,9.82400293 55.8438797,10.3001241 56.8671443,10.3001241 Z M56.8805495,9.31915987 C55.5221546,9.31915987 54.8429572,7.92725121 54.8429572,5.1434339 C54.8429572,2.3684541 55.5310914,0.980964197 56.9073599,0.980964197 C58.2880967,0.980964197 58.9784652,2.35519782 58.9784652,5.10366508 C58.9784652,7.91399494 58.2791599,9.31915987 56.8805495,9.31915987 Z" id="1935.00" fill="#000000"></path>
                </g>
                <g id="Group-26">
                    <path d="M24.9429161,12.0603097 C11.2336229,12.0603097 0.120037884,23.1010286 0.120037884,36.720437 C0.120037884,50.3399652 11.2335919,61.380715 24.9429161,61.380715 C38.6522404,61.380715 49.7657943,50.3399652 49.7657943,36.720437 C49.7657943,23.1010286 38.6522093,12.0603097 24.9429161,12.0603097 Z" id="Stroke-1" fill="#1738BB"></path>
                    <path d="M24.828525,0.0695689203 C45.2976721,0.0695689203 61.8912556,16.478733 61.8912556,36.720362 C61.8912556,56.7597154 45.6278926,73.042886 25.4414242,73.3665455 L24.828525,73.3714557 L24.828525,61.3471639 C38.5822167,61.3471639 49.7318663,50.3213183 49.7318663,36.720362 C49.7318663,23.255583 38.8041137,12.3146326 25.2403465,12.09716 L24.828525,12.0938608 L24.828525,0.0695689203 Z" id="Stroke-3" fill="#F67900"></path>
                </g>
            </g>
        </g>
        <text id="Title" font-family="OpenSans-SemiBold, Open Sans" font-size="6" font-weight="500" fill="#304254">
            <tspan x="46.2216797" y="111">Title</tspan>
        </text>
    </g>
</svg>
